X: 37603
T: Smoke Me Another Kipper For Breakfast
R: jig
M: 6/8
K: Amixolydian
|:a2e ceB-|B2A cde|a2e cde|fde c2B|
a2e cde|A2c- cBA|G2A B2c|dcd c2B:|
|:A2 g3 f-|f2 e cde|ABA c2d|e2f gfe|
a2 g3 f-|f2e cde|G2A B2c|dcd c2B:|

